**kern	**kern
*staff1	*staff2
*clefG2	*clefG2
*k[b-]	*k[b-]
*M2/4	*M2/4
*F:	*F:
*	*clefG2
16r	8cc
16cc'LL	.
16dd'	8r
16ee'JJ	.
=151	=151
16r	8a
16ff'LL	.
16gg'	8r
16aa'JJ	.
16r	8f
16aa'LL	.
16bb-'	8r
16ccc'JJ	.
=152	=152
16r	8e
16ccc'LL	.
16gg'	8r
16bb-'JJ	.
16r	8f
16bb-'LL	.
16ff'	8r
16aa'JJ	.
=153	=153
16r	8cL
16aa'LL	.
16ee'	8cJ
16gg'JJ	.
16dd'LL	8cL
16ff'	.
16cc'	8cJ
16ee'JJ	.
=154	=154
16dd'LL	8c
16ff'	.
16ee'	8r
16gg'JJ	.
16r	8cc
16cc'LL	.
16dd'	8r
16ee'JJ	.
=155	=155
16r	8a
16ff'LL	.
16gg'	8r
16aa'JJ	.
16r	8f
16aa'LL	.
16bb-'	8r
16ccc'JJ	.
=156	=156
16r	8e
16ccc'LL	.
16gg'	8r
16bb-'JJ	.
16r	8f
16bb-'LL	.
16ff'	8r
16aa'JJ	.
*	*clefF4
=157	=157
16r	8B-L
16aa'LL	.
16dd'	8BJ
16gg'JJ	.
16r	8cL
16ff'LL	.
16b-'	8CJ
16ee'JJ	.
=158	=158
16r	8FL
16gg'LL	.
16a'	8FFJ
16ff'JJ	.
*-	*-
